X:1
T:Parisien Allemande. TWC.247, Le
T:Parisien Allemande. TWC.247, Le
T:French
C:French
L:1/8
Q:1/4=100
M:2/4
K:D
V:1 treble 
V:1
 a2 g/f/e/d/ | a2 g/f/e/d/ | cABc | d/c/d/e/ dd | a2 g/f/e/d/ | a2 g/f/e/d/ | cABc | d2 d2 || %8
 AA/B/ AA/B/ | Af f2 | GG/A/ GG/A/ | Ge e2 | F/E/F/G/ FA | d/c/d/e/ df | gedc | d2 d2 || %16

